; generated by PrusaSlicer 2.2.0-rc+win64 on 2020-02-29 at 16:17:37 UTC


;
;

;
;
; 

; external perimeters extrusion width = 0.45mm
; perimeters extrusion width = 0.45mm
; infill extrusion width = 0.45mm
; solid infill extrusion width = 0.45mm
; top infill extrusion width = 0.40mm
; first layer extrusion width = 0.42mm

; external perimeters extrusion width = 0.45mm
; perimeters extrusion width = 0.45mm
; infill extrusion width = 0.45mm
; solid infill extrusion width = 0.45mm
; top infill extrusion width = 0.40mm
; first layer extrusion width = 0.42mm

M73 P0 R29
M201 X1250 Y1250 Z400 E5000 ; sets maximum accelerations, mm/sec^2
M203 X180 Y180 Z12 E80 ; sets maximum feedrates, mm/sec
M204 P1250 R1250 T1250 ; sets acceleration (P, T) and retract acceleration (R), mm/sec^2
M205 X8.00 Y8.00 Z2.00 E10.00 ; sets the jerk limits, mm/sec
M205 S0 T0 ; sets the minimum extruding and travel feed rate, mm/sec
M107 ; disable fan
G90 ; use absolute coordinates
M83 ; extruder relative mode
M104 S170 ; set extruder temp for bed leveling
M140 S60 ; set bed temp
M109 R170 ; wait for bed leveling temp
M190 S60 ; wait for bed temp
G28 ; home all without mesh bed level
G29 ; mesh bed leveling 
M104 S215 ; set extruder temp
G92 E0.0
G1 Y-2.0 X179 F2400
G1 Z3 F720
M109 S215 ; wait for extruder temp

; intro line
G1 X170 F1000
G1 Z0.2 F720
G1 X110.0 E8.0 F900
M73 P0 R29
G1 X40.0 E10.0 F700
G92 E0.0

M221 S95 ; set flow
G21 ; set units to millimeters
G90 ; use absolute coordinates
M83 ; use relative distances for extrusion
M900 K0.2 ; Filament gcode
;BEFORE_LAYER_CHANGE
G92 E0.0
;0.2


G1 Z0.200 F9000.000 ; move to next layer (0)
;AFTER_LAYER_CHANGE
;0.2
G1 X61.762 Y62.502 ; move to first skirt point
G1 F1200.000
G1 X62.512 Y61.969 E0.02884 ; skirt
G1 X63.407 Y61.761 E0.02884 ; skirt
G1 X83.492 Y61.759 E0.62975 ; skirt
G1 X83.999 Y61.815 E0.01597 ; skirt
G1 X84.482 Y61.977 E0.01597 ; skirt
G1 X84.919 Y62.238 E0.01597 ; skirt
G1 X85.291 Y62.587 E0.01597 ; skirt
G1 X112.970 Y95.343 E1.34464 ; skirt
G1 X113.865 Y96.565 E0.04749 ; skirt
G1 X114.605 Y97.890 E0.04758 ; skirt
G1 X115.078 Y99.010 E0.03812 ; skirt
G1 X115.438 Y100.170 E0.03806 ; skirt
G1 X115.682 Y101.359 E0.03808 ; skirt
G1 X115.809 Y102.568 E0.03811 ; skirt
G1 X115.817 Y103.782 E0.03805 ; skirt
G1 X115.705 Y104.994 E0.03818 ; skirt
G1 X115.475 Y106.187 E0.03809 ; skirt
G1 X115.130 Y107.352 E0.03809 ; skirt
G1 X114.672 Y108.476 E0.03807 ; skirt
G1 X114.106 Y109.552 E0.03810 ; skirt
G1 X113.437 Y110.566 E0.03808 ; skirt
G1 X112.673 Y111.509 E0.03806 ; skirt
G1 X111.819 Y112.373 E0.03810 ; skirt
G1 X110.885 Y113.149 E0.03806 ; skirt
G1 X109.880 Y113.830 E0.03806 ; skirt
G1 X108.812 Y114.409 E0.03808 ; skirt
G1 X107.373 Y114.993 E0.04870 ; skirt
G1 X105.900 Y115.386 E0.04780 ; skirt
G1 X104.362 Y115.597 E0.04868 ; skirt
G1 X102.807 Y115.614 E0.04875 ; skirt
G1 X101.262 Y115.436 E0.04876 ; skirt
G1 X99.754 Y115.066 E0.04870 ; skirt
G1 X98.301 Y114.508 E0.04878 ; skirt
G1 X96.958 Y113.791 E0.04773 ; skirt
G1 X95.749 Y112.942 E0.04633 ; skirt
G1 X61.999 Y85.989 E1.35423 ; skirt
G1 X61.627 Y85.614 E0.01657 ; skirt
G1 X61.346 Y85.167 E0.01657 ; skirt
G1 X61.173 Y84.675 E0.01633 ; skirt
G1 X61.111 Y84.162 E0.01621 ; skirt
G1 X61.112 Y64.095 E0.62920 ; skirt
G1 X61.288 Y63.238 E0.02743 ; skirt
G1 X61.729 Y62.553 E0.02555 ; skirt
G1 X96.997 Y96.680 F9000.000 ; move to first perimeter point
G1 F1200.000
G1 X97.672 Y96.079 E0.02834 ; perimeter
G1 X98.403 Y95.547 E0.02835 ; perimeter
G1 X99.183 Y95.090 E0.02835 ; perimeter
G1 X100.004 Y94.711 E0.02834 ; perimeter
G1 X100.858 Y94.414 E0.02835 ; perimeter
G1 X101.737 Y94.202 E0.02834 ; perimeter
G1 X102.632 Y94.078 E0.02835 ; perimeter
G1 X103.536 Y94.042 E0.02834 ; perimeter
G1 X104.438 Y94.094 E0.02835 ; perimeter
G1 X105.331 Y94.235 E0.02835 ; perimeter
G1 X106.205 Y94.463 E0.02833 ; perimeter
G1 X107.054 Y94.775 E0.02836 ; perimeter
G1 X107.868 Y95.169 E0.02835 ; perimeter
G1 X108.639 Y95.641 E0.02835 ; perimeter
G1 X109.360 Y96.187 E0.02835 ; perimeter
G1 X110.025 Y96.800 E0.02835 ; perimeter
G1 X110.625 Y97.475 E0.02835 ; perimeter
G1 X111.157 Y98.206 E0.02834 ; perimeter
G1 X111.615 Y98.986 E0.02835 ; perimeter
G1 X111.994 Y99.807 E0.02835 ; perimeter
G1 X112.291 Y100.661 E0.02835 ; perimeter
G1 X112.502 Y101.540 E0.02835 ; perimeter
G1 X112.627 Y102.435 E0.02835 ; perimeter
G1 X112.663 Y103.338 E0.02835 ; perimeter
G1 X112.610 Y104.241 E0.02835 ; perimeter
G1 X112.469 Y105.134 E0.02835 ; perimeter
G1 X112.241 Y106.009 E0.02835 ; perimeter
G1 X111.929 Y106.857 E0.02835 ; perimeter
G1 X111.535 Y107.671 E0.02835 ; perimeter
G1 X111.063 Y108.442 E0.02835 ; perimeter
G1 X110.518 Y109.163 E0.02835 ; perimeter
G1 X109.905 Y109.827 E0.02834 ; perimeter
G1 X109.229 Y110.428 E0.02835 ; perimeter
G1 X108.498 Y110.960 E0.02835 ; perimeter
G1 X107.719 Y111.418 E0.02835 ; perimeter
G1 X106.898 Y111.797 E0.02835 ; perimeter
G1 X106.044 Y112.093 E0.02835 ; perimeter
G1 X105.165 Y112.305 E0.02835 ; perimeter
G1 X104.269 Y112.429 E0.02835 ; perimeter
G1 X103.366 Y112.465 E0.02834 ; perimeter
G1 X102.464 Y112.413 E0.02835 ; perimeter
G1 X101.571 Y112.272 E0.02835 ; perimeter
G1 X100.696 Y112.044 E0.02833 ; perimeter
G1 X99.847 Y111.732 E0.02836 ; perimeter
G1 X99.034 Y111.338 E0.02835 ; perimeter
G1 X98.263 Y110.866 E0.02835 ; perimeter
G1 X97.542 Y110.321 E0.02835 ; perimeter
G1 X96.877 Y109.707 E0.02835 ; perimeter
G1 X96.276 Y109.032 E0.02835 ; perimeter
G1 X95.744 Y108.301 E0.02835 ; perimeter
G1 X95.287 Y107.521 E0.02835 ; perimeter
G1 X94.908 Y106.701 E0.02835 ; perimeter
G1 X94.611 Y105.847 E0.02835 ; perimeter
G1 X94.400 Y104.968 E0.02833 ; perimeter
G1 X94.275 Y104.073 E0.02835 ; perimeter
G1 X94.239 Y103.169 E0.02836 ; perimeter
G1 X94.292 Y102.266 E0.02835 ; perimeter
G1 X94.433 Y101.373 E0.02835 ; perimeter
G1 X94.660 Y100.498 E0.02835 ; perimeter
G1 X94.973 Y99.650 E0.02834 ; perimeter
G1 X95.367 Y98.836 E0.02835 ; perimeter
G1 X95.838 Y98.066 E0.02833 ; perimeter
G1 X96.384 Y97.344 E0.02837 ; perimeter
G1 X96.956 Y96.724 E0.02647 ; perimeter
G1 X96.679 Y96.468 F9000.000 ; move to first perimeter point
G1 F1200.000
G1 X97.436 Y95.785 E0.03196 ; perimeter
G1 X98.197 Y95.231 E0.02951 ; perimeter
G1 X99.008 Y94.755 E0.02951 ; perimeter
G1 X99.863 Y94.360 E0.02951 ; perimeter
G1 X100.752 Y94.052 E0.02951 ; perimeter
G1 X101.667 Y93.831 E0.02951 ; perimeter
G1 X102.599 Y93.702 E0.02951 ; perimeter
G1 X103.539 Y93.664 E0.02951 ; perimeter
G1 X104.479 Y93.719 E0.02951 ; perimeter
G1 X105.408 Y93.866 E0.02951 ; perimeter
G1 X106.318 Y94.103 E0.02949 ; perimeter
G1 X107.202 Y94.428 E0.02953 ; perimeter
G1 X108.049 Y94.838 E0.02951 ; perimeter
G1 X108.852 Y95.329 E0.02951 ; perimeter
G1 X109.602 Y95.897 E0.02951 ; perimeter
G1 X110.294 Y96.535 E0.02951 ; perimeter
G1 X110.920 Y97.238 E0.02951 ; perimeter
G1 X111.473 Y97.999 E0.02951 ; perimeter
G1 X111.949 Y98.811 E0.02951 ; perimeter
G1 X112.344 Y99.665 E0.02951 ; perimeter
G1 X112.653 Y100.554 E0.02951 ; perimeter
G1 X112.873 Y101.469 E0.02951 ; perimeter
G1 X113.003 Y102.401 E0.02951 ; perimeter
G1 X113.040 Y103.342 E0.02951 ; perimeter
G1 X112.985 Y104.281 E0.02951 ; perimeter
G1 X112.839 Y105.211 E0.02951 ; perimeter
G1 X112.602 Y106.122 E0.02951 ; perimeter
G1 X112.277 Y107.005 E0.02951 ; perimeter
G1 X111.866 Y107.852 E0.02951 ; perimeter
G1 X111.375 Y108.655 E0.02951 ; perimeter
G1 X110.808 Y109.405 E0.02951 ; perimeter
G1 X110.169 Y110.097 E0.02951 ; perimeter
G1 X109.466 Y110.722 E0.02951 ; perimeter
G1 X108.705 Y111.276 E0.02951 ; perimeter
G1 X107.893 Y111.752 E0.02951 ; perimeter
G1 X107.039 Y112.147 E0.02951 ; perimeter
G1 X106.150 Y112.456 E0.02951 ; perimeter
G1 X105.235 Y112.676 E0.02951 ; perimeter
G1 X104.303 Y112.805 E0.02951 ; perimeter
G1 X103.363 Y112.843 E0.02950 ; perimeter
G1 X102.423 Y112.788 E0.02951 ; perimeter
G1 X101.494 Y112.642 E0.02951 ; perimeter
G1 X100.583 Y112.405 E0.02949 ; perimeter
G1 X99.700 Y112.079 E0.02953 ; perimeter
G1 X98.853 Y111.669 E0.02951 ; perimeter
G1 X98.050 Y111.178 E0.02951 ; perimeter
G1 X97.299 Y110.610 E0.02951 ; perimeter
G1 X96.608 Y109.972 E0.02951 ; perimeter
G1 X95.982 Y109.269 E0.02951 ; perimeter
G1 X95.429 Y108.508 E0.02951 ; perimeter
G1 X94.952 Y107.696 E0.02951 ; perimeter
G1 X94.558 Y106.842 E0.02951 ; perimeter
G1 X94.249 Y105.953 E0.02951 ; perimeter
G1 X94.029 Y105.039 E0.02949 ; perimeter
G1 X93.899 Y104.106 E0.02951 ; perimeter
G1 X93.862 Y103.165 E0.02953 ; perimeter
G1 X93.916 Y102.226 E0.02951 ; perimeter
G1 X94.063 Y101.296 E0.02951 ; perimeter
G1 X94.300 Y100.386 E0.02951 ; perimeter
G1 X94.625 Y99.503 E0.02951 ; perimeter
G1 X95.035 Y98.655 E0.02951 ; perimeter
G1 X95.526 Y97.853 E0.02949 ; perimeter
G1 X96.094 Y97.102 E0.02953 ; perimeter
G1 X96.639 Y96.512 E0.02517 ; perimeter
G1 X97.065 Y96.573 F9000.000 ; move inwards before travel
G1 X110.987 Y98.164 ; move to first infill point
G1 F1200.000
G1 X109.800 Y96.977 E0.05304 ; infill
G1 X109.179 Y96.404 E0.02670 ; infill
G1 X108.480 Y95.875 E0.02768 ; infill
G1 X107.676 Y95.391 E0.02964 ; infill
G1 X111.309 Y99.024 E0.16231 ; infill
G1 X111.769 Y100.021 E0.03467 ; infill
G1 X106.691 Y94.943 E0.22684 ; infill
G1 X106.121 Y94.733 E0.01920 ; infill
G1 X105.882 Y94.671 E0.00780 ; infill
G1 X112.040 Y100.830 E0.27513 ; infill
G1 X112.211 Y101.537 E0.02299 ; infill
G1 X105.170 Y94.496 E0.31454 ; infill
G1 X104.532 Y94.396 E0.02040 ; infill
G1 X112.304 Y102.168 E0.34720 ; infill
G1 X112.345 Y102.460 E0.00933 ; infill
G1 X112.356 Y102.757 E0.00940 ; infill
G1 X103.948 Y94.349 E0.37562 ; infill
G1 X103.392 Y94.331 E0.01757 ; infill
G1 X112.379 Y103.317 E0.40145 ; infill
G1 X112.351 Y103.826 E0.01611 ; infill
G1 X102.876 Y94.351 E0.42328 ; infill
G1 X102.385 Y94.398 E0.01557 ; infill
G1 X112.311 Y104.323 E0.44341 ; infill
G1 X112.238 Y104.787 E0.01484 ; infill
G1 X101.913 Y94.463 E0.46121 ; infill
G1 X101.470 Y94.557 E0.01431 ; infill
G1 X112.150 Y105.237 E0.47710 ; infill
G1 X112.039 Y105.663 E0.01391 ; infill
G1 X101.037 Y94.662 E0.49149 ; infill
G1 X100.631 Y94.792 E0.01349 ; infill
G1 X111.915 Y106.077 E0.50411 ; infill
G1 X111.770 Y106.469 E0.01322 ; infill
G1 X100.232 Y94.931 E0.51546 ; infill
G1 X99.855 Y95.091 E0.01294 ; infill
G1 X111.617 Y106.853 E0.52544 ; infill
G1 X111.442 Y107.215 E0.01270 ; infill
G1 X99.487 Y95.261 E0.53403 ; infill
G1 X99.135 Y95.446 E0.01257 ; infill
G1 X111.263 Y107.574 E0.54179 ; infill
G1 X111.059 Y107.907 E0.01234 ; infill
G1 X98.796 Y95.644 E0.54780 ; infill
G1 X98.466 Y95.851 E0.01231 ; infill
G1 X110.855 Y108.240 E0.55344 ; infill
G1 X110.627 Y108.550 E0.01214 ; infill
G1 X98.155 Y96.078 E0.55716 ; infill
G1 X97.845 Y96.304 E0.01215 ; infill
G1 X110.396 Y108.856 E0.56070 ; infill
G1 X110.149 Y109.146 E0.01204 ; infill
G1 X97.560 Y96.557 E0.56236 ; infill
G1 X97.276 Y96.810 E0.01202 ; infill
G1 X109.891 Y109.425 E0.56354 ; infill
G1 X109.626 Y109.697 E0.01200 ; infill
G1 X97.011 Y97.082 E0.56354 ; infill
G1 X96.753 Y97.361 E0.01201 ; infill
G1 X109.341 Y109.950 E0.56236 ; infill
G1 X109.057 Y110.203 E0.01202 ; infill
G1 X96.506 Y97.652 E0.56070 ; infill
G1 X96.275 Y97.958 E0.01212 ; infill
G1 X108.747 Y110.430 E0.55716 ; infill
G1 X108.436 Y110.656 E0.01215 ; infill
G1 X96.047 Y98.267 E0.55344 ; infill
G1 X95.843 Y98.600 E0.01234 ; infill
G1 X108.105 Y110.863 E0.54780 ; infill
G1 X107.767 Y111.062 E0.01240 ; infill
G1 X95.639 Y98.934 E0.54178 ; infill
G1 X95.460 Y99.292 E0.01266 ; infill
G1 X107.414 Y111.247 E0.53403 ; infill
G1 X107.047 Y111.416 E0.01279 ; infill
G1 X95.285 Y99.654 E0.52544 ; infill
G1 X95.131 Y100.038 E0.01305 ; infill
G1 X106.670 Y111.576 E0.51546 ; infill
G1 X106.271 Y111.715 E0.01333 ; infill
G1 X94.987 Y100.431 E0.50411 ; infill
G1 X94.863 Y100.844 E0.01363 ; infill
G1 X105.864 Y111.846 E0.49148 ; infill
G1 X105.431 Y111.950 E0.01407 ; infill
G1 X94.752 Y101.270 E0.47710 ; infill
G1 X94.664 Y101.720 E0.01447 ; infill
G1 X104.988 Y112.044 E0.46120 ; infill
G1 X104.517 Y112.110 E0.01504 ; infill
G1 X94.591 Y102.184 E0.44340 ; infill
G1 X94.551 Y102.681 E0.01575 ; infill
G1 X104.026 Y112.156 E0.42328 ; infill
G1 X103.509 Y112.177 E0.01633 ; infill
G1 X94.523 Y103.190 E0.40144 ; infill
G1 X94.545 Y103.750 E0.01769 ; infill
G1 X102.953 Y112.158 E0.37561 ; infill
G1 X102.370 Y112.112 E0.01850 ; infill
G1 X94.598 Y104.340 E0.34719 ; infill
G1 X94.691 Y104.970 E0.02013 ; infill
G1 X101.732 Y112.011 E0.31453 ; infill
G1 X101.020 Y111.836 E0.02316 ; infill
G1 X94.861 Y105.678 E0.27512 ; infill
G1 X95.133 Y106.487 E0.02695 ; infill
G1 X100.210 Y111.564 E0.22683 ; infill
G1 X99.958 Y111.471 E0.00849 ; infill
G1 X99.225 Y111.116 E0.02572 ; infill
G1 X95.593 Y107.483 E0.16229 ; infill
G1 X95.981 Y108.146 E0.02426 ; infill
G1 X96.497 Y108.854 E0.02768 ; infill
G1 X97.066 Y109.494 E0.02705 ; infill
G1 X98.372 Y110.800 E0.05834 ; infill
G1 X82.701 Y83.349 F9000.000 ; move to first perimeter point
G1 F1200.000
G1 X64.275 Y83.349 E0.57773 ; perimeter
G1 X64.275 Y64.924 E0.57773 ; perimeter
G1 X82.701 Y64.924 E0.57773 ; perimeter
G1 X82.701 Y83.289 E0.57585 ; perimeter
M73 P3 R28
G1 X83.078 Y83.727 F9000.000 ; move to first perimeter point
G1 F1200.000
G1 X63.898 Y83.727 E0.60138 ; perimeter
G1 X63.898 Y64.547 E0.60138 ; perimeter
G1 X83.078 Y64.547 E0.60138 ; perimeter
G1 X83.078 Y83.667 E0.59949 ; perimeter
G1 X82.692 Y83.623 F9000.000 ; move inwards before travel
G1 X65.155 Y83.236 ; move to first infill point
G1 F1200.000
G1 X64.558 Y82.639 E0.02663 ; infill
G1 X64.558 Y82.103 E0.01692 ; infill
G1 X65.522 Y83.067 E0.04299 ; infill
G1 X66.059 Y83.067 E0.01692 ; infill
G1 X64.558 Y81.566 E0.06691 ; infill
G1 X64.558 Y81.030 E0.01692 ; infill
G1 X66.595 Y83.067 E0.09084 ; infill
G1 X67.131 Y83.067 E0.01692 ; infill
G1 X64.558 Y80.494 E0.11476 ; infill
G1 X64.558 Y79.957 E0.01692 ; infill
G1 X67.668 Y83.067 E0.13868 ; infill
G1 X68.204 Y83.067 E0.01692 ; infill
G1 X64.558 Y79.421 E0.16261 ; infill
G1 X64.558 Y78.884 E0.01692 ; infill
G1 X68.740 Y83.067 E0.18653 ; infill
G1 X69.277 Y83.067 E0.01692 ; infill
G1 X64.558 Y78.348 E0.21045 ; infill
G1 X64.558 Y77.812 E0.01692 ; infill
G1 X69.813 Y83.067 E0.23438 ; infill
G1 X70.350 Y83.067 E0.01692 ; infill
G1 X64.558 Y77.275 E0.25830 ; infill
G1 X64.558 Y76.739 E0.01692 ; infill
G1 X70.886 Y83.067 E0.28223 ; infill
G1 X71.422 Y83.067 E0.01692 ; infill
G1 X64.558 Y76.202 E0.30615 ; infill
G1 X64.558 Y75.666 E0.01692 ; infill
G1 X71.959 Y83.067 E0.33007 ; infill
G1 X72.495 Y83.067 E0.01692 ; infill
G1 X64.558 Y75.130 E0.35400 ; infill
G1 X64.558 Y74.593 E0.01692 ; infill
G1 X73.032 Y83.067 E0.37792 ; infill
G1 X73.568 Y83.067 E0.01692 ; infill
G1 X64.558 Y74.057 E0.40184 ; infill
G1 X64.558 Y73.521 E0.01692 ; infill
G1 X74.104 Y83.067 E0.42577 ; infill
G1 X74.641 Y83.067 E0.01692 ; infill
G1 X64.558 Y72.984 E0.44969 ; infill
G1 X64.558 Y72.448 E0.01692 ; infill
G1 X75.177 Y83.067 E0.47362 ; infill
G1 X75.714 Y83.067 E0.01692 ; infill
G1 X64.558 Y71.911 E0.49754 ; infill
G1 X64.558 Y71.375 E0.01692 ; infill
G1 X76.250 Y83.067 E0.52146 ; infill
G1 X76.786 Y83.067 E0.01692 ; infill
G1 X64.558 Y70.839 E0.54539 ; infill
G1 X64.558 Y70.302 E0.01692 ; infill
G1 X77.323 Y83.067 E0.56931 ; infill
G1 X77.859 Y83.067 E0.01692 ; infill
G1 X64.558 Y69.766 E0.59323 ; infill
G1 X64.558 Y69.229 E0.01692 ; infill
G1 X78.396 Y83.067 E0.61716 ; infill
G1 X78.932 Y83.067 E0.01692 ; infill
G1 X64.558 Y68.693 E0.64108 ; infill
G1 X64.558 Y68.157 E0.01692 ; infill
G1 X79.468 Y83.067 E0.66500 ; infill
G1 X80.005 Y83.067 E0.01692 ; infill
G1 X64.558 Y67.620 E0.68893 ; infill
G1 X64.558 Y67.084 E0.01692 ; infill
G1 X80.541 Y83.067 E0.71285 ; infill
G1 X81.077 Y83.067 E0.01692 ; infill
G1 X64.558 Y66.547 E0.73678 ; infill
G1 X64.558 Y66.011 E0.01692 ; infill
G1 X81.614 Y83.067 E0.76070 ; infill
G1 X82.150 Y83.067 E0.01692 ; infill
G1 X64.558 Y65.475 E0.78462 ; infill
G1 X64.558 Y65.206 E0.00846 ; infill
G1 X64.826 Y65.206 E0.00846 ; infill
G1 X82.419 Y82.799 E0.78463 ; infill
G1 X82.419 Y82.262 E0.01692 ; infill
G1 X65.363 Y65.206 E0.76070 ; infill
G1 X65.899 Y65.206 E0.01692 ; infill
