

;
;

;
;
; 

; external perimeters extrusion width = 0.45mm
; perimeters extrusion width = 0.45mm
; infill extrusion width = 0.45mm
; solid infill extrusion width = 0.45mm
; top infill extrusion width = 0.40mm
; first layer extrusion width = 0.42mm

; external perimeters extrusion width = 0.45mm
; perimeters extrusion width = 0.45mm
; infill extrusion width = 0.45mm
; solid infill extrusion width = 0.45mm
; top infill extrusion width = 0.40mm
; first layer extrusion width = 0.42mm

M73 P0 R29
M201 X1250 Y1250 Z400 E5000 ; sets maximum accelerations, mm/sec^2
M203 X180 Y180 Z12 E80 ; sets maximum feedrates, mm/sec
M204 P1250 R1250 T1250 ; sets acceleration (P, T) and retract acceleration (R), mm/sec^2
M205 X8.00 Y8.00 Z2.00 E10.00 ; sets the jerk limits, mm/sec
M205 S0 T0 ; sets the minimum extruding and travel feed rate, mm/sec
M107 ; disable fan
G90 ; use absolute coordinates
M83 ; extruder relative mode
M104 S170 ; set extruder temp for bed leveling
M140 S60 ; set bed temp
M109 R170 ; wait for bed leveling temp
M190 S60 ; wait for bed temp
G28 ; home all without mesh bed level
G29 ; mesh bed leveling 
M104 S215 ; set extruder temp
G92 E0.0
G1 X179.000 Y-2.000 F2400
G1 Z3.000 F720
M109 S215 ; wait for extruder temp

; intro line
G1 X170.000 F1000
G1 Z0.200 F720
G1 X110.000 E8.000000 F900
M73 P0 R29
G1 X40.000 E10.000000 F700
G92 E0.0

M221 S95 ; set flow
G21 ; set units to millimeters
G90 ; use absolute coordinates
M83 ; use relative distances for extrusion
M900 K0.2 ; Filament gcode
G92 E0.0
G1 Z0.200 F9000
G1 X61.762 Y62.502
G1 F1200
G1 X62.471 Y61.998 E0.000000
G1 X62.561 Y61.958 E0.003075
G1 X63.358 Y61.772 E0.027271
G1 X63.457 Y61.761 E0.003118
G1 X83.442 Y61.759 E0.628182
G1 X83.542 Y61.764 E0.003131
G1 X83.949 Y61.810 E0.014405
G1 X84.046 Y61.831 E0.003113
G1 X84.435 Y61.961 E0.014403
G1 X84.525 Y62.003 E0.003117
G1 X84.876 Y62.212 E0.014401
G1 X84.955 Y62.272 E0.003119
G1 X85.255 Y62.553 E0.014405
G1 X85.323 Y62.625 E0.003126
G1 X112.938 Y95.305 E1.343072
G1 X113.000 Y95.383 E0.003134
G1 X113.835 Y96.525 E0.045922
G1 X113.889 Y96.609 E0.003129
G1 X114.581 Y97.846 E0.046012
G1 X114.624 Y97.936 E0.003130
G1 X115.059 Y98.964 E0.036552
G1 X115.093 Y99.058 E0.003132
G1 X115.423 Y100.122 E0.036493
G1 X115.448 Y100.219 E0.003130
G1 X115.672 Y101.310 E0.036511
G1 X115.687 Y101.409 E0.003134
G1 X115.804 Y102.518 E0.036543
G1 X115.809 Y102.618 E0.003131
G1 X115.817 Y103.732 E0.036483
G1 X115.812 Y103.832 E0.003130
G1 X115.710 Y104.944 E0.036612
G1 X115.696 Y105.043 E0.003133
G1 X115.484 Y106.138 E0.036522
G1 X115.461 Y106.235 E0.003131
G1 X115.144 Y107.304 E0.036523
G1 X115.111 Y107.398 E0.003131
G1 X114.691 Y108.430 E0.036502
G1 X114.649 Y108.520 E0.003133
G1 X114.129 Y109.508 E0.036533
G1 X114.078 Y109.594 E0.003130
G1 X113.465 Y110.524 E0.036513
G1 X113.406 Y110.605 E0.003131
G1 X112.704 Y111.470 E0.036492
G1 X112.638 Y111.545 E0.003132
G1 X111.854 Y112.337 E0.036532
G1 X111.781 Y112.405 E0.003132
G1 X110.923 Y113.117 E0.036493
G1 X110.844 Y113.177 E0.003131
G1 X109.921 Y113.802 E0.036492
G1 X109.836 Y113.854 E0.003131
G1 X108.856 Y114.385 E0.036513
G1 X108.766 Y114.428 E0.003130
G1 X107.419 Y114.974 E0.047132
G1 X107.325 Y115.006 E0.003130
G1 X105.948 Y115.373 E0.046232
G1 X105.850 Y115.393 E0.003129
G1 X104.412 Y115.590 E0.047112
G1 X104.312 Y115.598 E0.003130
G1 X102.857 Y115.613 E0.047183
G1 X102.757 Y115.608 E0.003129
G1 X101.312 Y115.442 E0.047192
G1 X101.213 Y115.424 E0.003129
G1 X99.803 Y115.078 E0.047132
G1 X99.707 Y115.048 E0.003130
G1 X98.348 Y114.526 E0.047213
G1 X98.257 Y114.484 E0.003128
G1 X97.002 Y113.815 E0.046162
G1 X96.917 Y113.762 E0.003129
G1 X95.790 Y112.971 E0.044762
G1 X95.710 Y112.911 E0.003135
G1 X62.038 Y86.020 E1.352662
G1 X61.964 Y85.954 E0.003130
G1 X61.662 Y85.649 E0.015002
G1 X61.600 Y85.572 E0.003118
G1 X61.373 Y85.209 E0.015001
G1 X61.329 Y85.120 E0.003119
G1 X61.190 Y84.722 E0.014764
G1 X61.167 Y84.625 E0.003113
G1 X61.117 Y84.212 E0.014641
G1 X61.111 Y84.112 E0.003131
G1 X61.112 Y64.145 E0.627632
G1 X61.122 Y64.046 E0.003119
G1 X61.278 Y63.287 E0.025862
G1 X61.315 Y63.196 E0.003082
G1 X61.727 Y62.551 E0.023982
G1 X96.997 Y96.680 F9000
G1 F1200
G1 X97.635 Y96.112 E0.026772
G1 X97.712 Y96.050 E0.003132
G1 X98.363 Y95.576 E0.026782
G1 X98.446 Y95.522 E0.003132
G1 X99.140 Y95.115 E0.026782
G1 X99.228 Y95.069 E0.003132
G1 X99.959 Y94.732 E0.026773
G1 X100.051 Y94.695 E0.003130
G1 X100.811 Y94.430 E0.026782
G1 X100.907 Y94.402 E0.003132
G1 X101.688 Y94.214 E0.026773
G1 X101.787 Y94.195 E0.003130
G1 X102.582 Y94.085 E0.026781
G1 X102.682 Y94.076 E0.003134
G1 X103.486 Y94.044 E0.026774
G1 X103.586 Y94.045 E0.003129
G1 X104.388 Y94.091 E0.026781
G1 X104.487 Y94.102 E0.003134
G1 X105.282 Y94.227 E0.026782
G1 X105.379 Y94.248 E0.003132
G1 X106.157 Y94.450 E0.026762
G1 X106.252 Y94.480 E0.003133
G1 X107.007 Y94.758 E0.026792
G1 X107.099 Y94.797 E0.003132
G1 X107.823 Y95.147 E0.026783
G1 X107.911 Y95.195 E0.003131
G1 X108.596 Y95.615 E0.026782
G1 X108.679 Y95.671 E0.003132
G1 X109.320 Y96.157 E0.026783
G1 X109.397 Y96.221 E0.003131
G1 X109.988 Y96.766 E0.026783
G1 X110.058 Y96.837 E0.003131
G1 X110.592 Y97.438 E0.026780
G1 X110.654 Y97.515 E0.003135
G1 X111.128 Y98.166 E0.026773
G1 X111.182 Y98.249 E0.003131
G1 X111.590 Y98.943 E0.026783
G1 X111.636 Y99.031 E0.003130
G1 X111.973 Y99.762 E0.026782
G1 X112.010 Y99.854 E0.003131
G1 X112.275 Y100.614 E0.026782
G1 X112.303 Y100.710 E0.003132
G1 X112.490 Y101.491 E0.026782
G1 X112.509 Y101.590 E0.003132
G1 X112.620 Y102.385 E0.026781
G1 X112.629 Y102.485 E0.003133
G1 X112.661 Y103.288 E0.026781
G1 X112.660 Y103.388 E0.003133
G1 X112.613 Y104.191 E0.026783
G1 X112.602 Y104.290 E0.003130
G1 X112.477 Y105.085 E0.026782
G1 X112.456 Y105.182 E0.003132
G1 X112.254 Y105.961 E0.026782
G1 X112.224 Y106.056 E0.003132
G1 X111.946 Y106.810 E0.026781
G1 X111.907 Y106.902 E0.003134
G1 X111.557 Y107.626 E0.026783
G1 X111.509 Y107.714 E0.003131
G1 X111.089 Y108.399 E0.026782
G1 X111.033 Y108.482 E0.003132
G1 X110.548 Y109.123 E0.026782
G1 X110.484 Y109.200 E0.003133
G1 X109.939 Y109.790 E0.026772
G1 X109.868 Y109.860 E0.003132
G1 X109.266 Y110.395 E0.026783
G1 X109.189 Y110.457 E0.003130
G1 X108.538 Y110.931 E0.026782
G1 X108.455 Y110.985 E0.003132
G1 X107.762 Y111.393 E0.026781
G1 X107.674 Y111.439 E0.003133
G1 X106.943 Y111.776 E0.026782
G1 X106.851 Y111.813 E0.003131
G1 X106.091 Y112.077 E0.026782
G1 X105.995 Y112.105 E0.003133
G1 X105.214 Y112.293 E0.026782
G1 X105.115 Y112.312 E0.003132
G1 X104.319 Y112.422 E0.026783
G1 X104.219 Y112.431 E0.003130
G1 X103.416 Y112.463 E0.026772
G1 X103.316 Y112.462 E0.003132
G1 X102.514 Y112.416 E0.026781
G1 X102.415 Y112.405 E0.003134
G1 X101.620 Y112.280 E0.026782
G1 X101.523 Y112.259 E0.003132
G1 X100.744 Y112.057 E0.026763
G1 X100.649 Y112.027 E0.003129
G1 X99.894 Y111.749 E0.026792
G1 X99.802 Y111.710 E0.003132
G1 X99.079 Y111.360 E0.026781
G1 X98.991 Y111.312 E0.003134
G1 X98.306 Y110.892 E0.026782
G1 X98.223 Y110.836 E0.003132
G1 X97.582 Y110.351 E0.026782
G1 X97.505 Y110.287 E0.003133
G1 X96.914 Y109.741 E0.026784
G1 X96.844 Y109.670 E0.003128
G1 X96.309 Y109.069 E0.026782
G1 X96.247 Y108.992 E0.003133
G1 X95.773 Y108.341 E0.026782
G1 X95.719 Y108.258 E0.003132
G1 X95.312 Y107.564 E0.026782
G1 X95.266 Y107.476 E0.003132
G1 X94.929 Y106.746 E0.026781
G1 X94.892 Y106.654 E0.003135
G1 X94.627 Y105.894 E0.026782
G1 X94.599 Y105.798 E0.003132
G1 X94.412 Y105.017 E0.026763
G1 X94.393 Y104.918 E0.003130
G1 X94.282 Y104.123 E0.026781
G1 X94.273 Y104.023 E0.003133
G1 X94.241 Y103.219 E0.026793
G1 X94.242 Y103.119 E0.003131
G1 X94.289 Y102.316 E0.026783
G1 X94.300 Y102.217 E0.003130
G1 X94.425 Y101.422 E0.026782
G1 X94.446 Y101.325 E0.003132
G1 X94.647 Y100.546 E0.026782
G1 X94.677 Y100.451 E0.003132
G1 X94.956 Y99.697 E0.026772
G1 X94.995 Y99.605 E0.003132
G1 X95.345 Y98.881 E0.026783
G1 X95.393 Y98.793 E0.003131
G1 X95.812 Y98.109 E0.026761
G1 X95.868 Y98.026 E0.003135
G1 X96.354 Y97.384 E0.026803
G1 X96.418 Y97.307 E0.003130
G1 X96.954 Y96.722 E0.024903
G1 X96.679 Y96.468 F9000
G1 F1200
G1 X97.399 Y95.818 E0.030393
G1 X97.476 Y95.756 E0.003130
G1 X98.157 Y95.260 E0.027942
G1 X98.240 Y95.206 E0.003131
G1 X98.965 Y94.780 E0.027941
G1 X99.053 Y94.734 E0.003134
G1 X99.818 Y94.381 E0.027943
G1 X99.910 Y94.344 E0.003129
G1 X100.705 Y94.068 E0.027942
G1 X100.801 Y94.040 E0.003133
G1 X101.618 Y93.843 E0.027943
G1 X101.717 Y93.824 E0.003131
G1 X102.549 Y93.709 E0.027942
G1 X102.649 Y93.700 E0.003133
G1 X103.489 Y93.666 E0.027942
G1 X103.589 Y93.667 E0.003133
G1 X104.429 Y93.716 E0.027943
G1 X104.528 Y93.727 E0.003130
G1 X105.359 Y93.858 E0.027941
G1 X105.456 Y93.879 E0.003134
G1 X106.270 Y94.090 E0.027922
G1 X106.365 Y94.120 E0.003132
G1 X107.155 Y94.411 E0.027962
G1 X107.247 Y94.450 E0.003132
G1 X108.004 Y94.816 E0.027942
G1 X108.092 Y94.864 E0.003132
G1 X108.809 Y95.303 E0.027942
G1 X108.892 Y95.359 E0.003131
G1 X109.562 Y95.867 E0.027942
G1 X109.639 Y95.931 E0.003133
G1 X110.257 Y96.501 E0.027942
G1 X110.327 Y96.572 E0.003131
G1 X110.887 Y97.201 E0.027943
G1 X110.949 Y97.278 E0.003131
G1 X111.444 Y97.959 E0.027941
G1 X111.498 Y98.042 E0.003133
G1 X111.924 Y98.768 E0.027942
G1 X111.970 Y98.856 E0.003132
G1 X112.323 Y99.620 E0.027942
G1 X112.360 Y99.712 E0.003132
G1 X112.637 Y100.507 E0.027942
G1 X112.665 Y100.603 E0.003132
G1 X112.861 Y101.420 E0.027942
G1 X112.880 Y101.519 E0.003132
G1 X112.996 Y102.351 E0.027942
G1 X113.005 Y102.451 E0.003132
G1 X113.038 Y103.292 E0.027943
G1 X113.037 Y103.392 E0.003130
G1 X112.988 Y104.231 E0.027941
G1 X112.977 Y104.330 E0.003134
G1 X112.847 Y105.162 E0.027943
G1 X112.826 Y105.259 E0.003131
G1 X112.615 Y106.074 E0.027943
G1 X112.585 Y106.169 E0.003131
G1 X112.294 Y106.958 E0.027942
G1 X112.255 Y107.050 E0.003132
G1 X111.888 Y107.807 E0.027943
G1 X111.840 Y107.895 E0.003131
G1 X111.401 Y108.612 E0.027942
G1 X111.345 Y108.695 E0.003131
G1 X110.838 Y109.365 E0.027941
G1 X110.774 Y109.442 E0.003135
G1 X110.203 Y110.060 E0.027943
G1 X110.132 Y110.130 E0.003129
G1 X109.503 Y110.689 E0.027941
G1 X109.426 Y110.751 E0.003133
G1 X108.745 Y111.247 E0.027942
G1 X108.662 Y111.301 E0.003131
G1 X107.936 Y111.727 E0.027942
G1 X107.848 Y111.773 E0.003132
G1 X107.084 Y112.126 E0.027942
G1 X106.992 Y112.163 E0.003132
G1 X106.197 Y112.440 E0.027942
G1 X106.101 Y112.468 E0.003132
G1 X105.284 Y112.664 E0.027942
G1 X105.185 Y112.683 E0.003132
G1 X104.353 Y112.798 E0.027942
G1 X104.253 Y112.807 E0.003133
G1 X103.413 Y112.841 E0.027932
G1 X103.313 Y112.840 E0.003132
G1 X102.473 Y112.791 E0.027943
G1 X102.374 Y112.780 E0.003130
G1 X101.543 Y112.650 E0.027941
G1 X101.446 Y112.629 E0.003134
G1 X100.631 Y112.418 E0.027924
G1 X100.536 Y112.388 E0.003129
G1 X99.747 Y112.096 E0.027961
G1 X99.655 Y112.057 E0.003134
G1 X98.898 Y111.691 E0.027942
G1 X98.810 Y111.643 E0.003132
G1 X98.093 Y111.204 E0.027942
G1 X98.010 Y111.148 E0.003131
G1 X97.339 Y110.640 E0.027943
G1 X97.262 Y110.576 E0.003130
G1 X96.645 Y110.006 E0.027941
G1 X96.575 Y109.935 E0.003134
G1 X96.015 Y109.306 E0.027943
G1 X95.953 Y109.229 E0.003131
G1 X95.458 Y108.548 E0.027941
G1 X95.404 Y108.465 E0.003133
G1 X94.977 Y107.739 E0.027943
G1 X94.931 Y107.651 E0.003130
G1 X94.579 Y106.887 E0.027941
G1 X94.542 Y106.795 E0.003134
G1 X94.265 Y106.000 E0.027942
G1 X94.237 Y105.904 E0.003132
G1 X94.041 Y105.088 E0.027922
G1 X94.022 Y104.989 E0.003133
G1 X93.906 Y104.156 E0.027944
G1 X93.897 Y104.056 E0.003129
G1 X93.864 Y103.215 E0.027962
G1 X93.865 Y103.115 E0.003132
G1 X93.913 Y102.276 E0.027941
G1 X93.924 Y102.177 E0.003134
G1 X94.055 Y101.345 E0.027943
G1 X94.076 Y101.248 E0.003130
G1 X94.287 Y100.434 E0.027941
G1 X94.317 Y100.339 E0.003134
G1 X94.608 Y99.550 E0.027942
G1 X94.647 Y99.458 E0.003133
G1 X95.013 Y98.700 E0.027944
G1 X95.061 Y98.612 E0.003129
G1 X95.500 Y97.896 E0.027922
G1 X95.556 Y97.813 E0.003132
G1 X96.064 Y97.142 E0.027962
G1 X96.128 Y97.065 E0.003132
G1 X96.637 Y96.510 E0.023602
G1 X97.065 Y96.573 F9000
G1 X110.987 Y98.164
G1 F1200
G1 X109.835 Y97.012 E0.051460
G1 X109.763 Y96.943 E0.003159
G1 X109.216 Y96.438 E0.025120
G1 X109.139 Y96.374 E0.003156
G1 X108.520 Y95.905 E0.026101
G1 X108.437 Y95.849 E0.003153
G1 X107.719 Y95.417 E0.028061
G1 X107.711 Y95.426 E0.000384
G1 X111.274 Y98.989 E0.160730
G1 X111.330 Y99.069 E0.003110
G1 X111.748 Y99.976 E0.033091
G1 X111.734 Y99.986 E0.000555
G1 X106.726 Y94.978 E0.225261
G1 X106.644 Y94.926 E0.003085
G1 X106.168 Y94.750 E0.017620
G1 X106.073 Y94.720 E0.003157
G1 X105.930 Y94.684 E0.006220
G1 X105.917 Y94.706 E0.000830
G1 X112.005 Y100.795 E0.273551
G1 X112.052 Y100.879 E0.003041
G1 X112.199 Y101.488 E0.021410
G1 X112.176 Y101.502 E0.000855
G1 X105.205 Y94.531 E0.312961
G1 X105.121 Y94.488 E0.003003
G1 X104.581 Y94.404 E0.018821
G1 X104.567 Y94.431 E0.000979
G1 X112.269 Y102.133 E0.345621
G1 X112.311 Y102.218 E0.002996
G1 X112.338 Y102.410 E0.007748
G1 X112.347 Y102.510 E0.003160
G1 X112.354 Y102.707 E0.007819
G1 X112.321 Y102.722 E0.001156
G1 X103.983 Y94.384 E0.374041
G1 X103.898 Y94.347 E0.002938
G1 X103.442 Y94.333 E0.015991
G1 X103.427 Y94.366 E0.001161
G1 X112.344 Y103.282 E0.399871
G1 X112.376 Y103.367 E0.002884
G1 X112.354 Y103.776 E0.014530
G1 X112.316 Y103.791 E0.001289
G1 X102.911 Y94.386 E0.421701
G1 X102.826 Y94.356 E0.002857
G1 X102.435 Y94.393 E0.013992
G1 X102.420 Y94.433 E0.001346
G1 X112.276 Y104.288 E0.441831
G1 X112.303 Y104.372 E0.002815
G1 X112.246 Y104.738 E0.013260
G1 X112.203 Y104.752 E0.001433
G1 X101.948 Y94.498 E0.459631
G1 X101.864 Y94.473 E0.002776
G1 X101.519 Y94.547 E0.012730
G1 X101.505 Y94.592 E0.001507
G1 X112.115 Y105.202 E0.475521
G1 X112.137 Y105.285 E0.002741
G1 X112.052 Y105.615 E0.012330
G1 X112.004 Y105.628 E0.001570
G1 X101.072 Y94.697 E0.489911
G1 X100.989 Y94.677 E0.002697
G1 X100.679 Y94.777 E0.011908
G1 X100.666 Y94.827 E0.001648
G1 X111.880 Y106.042 E0.502531
G1 X111.898 Y106.124 E0.002660
G1 X111.787 Y106.422 E0.011639
G1 X111.735 Y106.434 E0.001706
G1 X100.267 Y94.966 E0.513881
G1 X100.186 Y94.951 E0.002619
G1 X99.901 Y95.071 E0.011360
G1 X99.890 Y95.126 E0.001767
G1 X111.582 Y106.818 E0.523861
G1 X111.595 Y106.898 E0.002575
G1 X111.464 Y107.170 E0.011121
G1 X111.407 Y107.180 E0.001830
G1 X99.522 Y95.296 E0.532451
G1 X99.443 Y95.284 E0.002544
G1 X99.179 Y95.423 E0.010989
G1 X99.170 Y95.481 E0.001874
G1 X111.228 Y107.539 E0.540211
G1 X111.237 Y107.617 E0.002481
G1 X111.085 Y107.864 E0.010760
G1 X111.024 Y107.872 E0.001956
G1 X98.831 Y95.679 E0.546221
G1 X98.754 Y95.671 E0.002470
G1 X98.508 Y95.824 E0.010730
G1 X98.501 Y95.886 E0.001969
G1 X110.820 Y108.205 E0.551861
G1 X110.825 Y108.280 E0.002396
G1 X110.657 Y108.510 E0.010563
G1 X110.592 Y108.515 E0.002056
G1 X98.190 Y96.113 E0.555581
G1 X98.115 Y96.107 E0.002400
G1 X97.885 Y96.275 E0.010566
G1 X97.880 Y96.339 E0.002059
G1 X110.361 Y108.821 E0.559121
G1 X110.364 Y108.894 E0.002321
G1 X110.181 Y109.108 E0.010460
G1 X110.114 Y109.111 E0.002144
G1 X97.595 Y96.592 E0.560781
G1 X97.523 Y96.590 E0.002297
G1 X97.313 Y96.777 E0.010440
G1 X97.311 Y96.845 E0.002169
G1 X109.856 Y109.390 E0.561961
G1 X109.856 Y109.461 E0.002248
G1 X109.661 Y109.661 E0.010420
G1 X109.591 Y109.662 E0.002220
G1 X97.046 Y97.117 E0.561961
G1 X96.977 Y97.119 E0.002190
G1 X96.787 Y97.324 E0.010430
G1 X96.788 Y97.396 E0.002278
G1 X109.306 Y109.915 E0.560781
G1 X109.304 Y109.983 E0.002168
G1 X109.094 Y110.170 E0.010440
G1 X109.022 Y110.168 E0.002298
G1 X96.541 Y97.687 E0.559121
G1 X96.476 Y97.692 E0.002073
G1 X96.305 Y97.918 E0.010539
G1 X96.310 Y97.993 E0.002385
G1 X108.712 Y110.395 E0.555581
